img/svg/discord.svg

<svg width="24" height="24" viewBox="0 0 24 24" xmlns="http://www.w3.org/2000/svg">
<path d="M20.317 4.15557C18.7873 3.45369 17.147 2.93658 15.4319 2.6404C15.4007 2.63469 15.3695 2.64897 15.3534 2.67754C15.1424 3.05276 14.9087 3.54226 14.7451 3.927C12.9004 3.65083 11.0652 3.65083 9.25832 3.927C9.09465 3.5337 8.85248 3.05276 8.64057 2.67754C8.62449 2.64992 8.59328 2.63564 8.56205 2.6404C6.84791 2.93563 5.20756 3.45275 3.67693 4.15557C3.66368 4.16129 3.65233 4.17082 3.64479 4.18319C0.533392 8.83155 -0.31895 13.3657 0.0991801 17.8436C0.101072 17.8655 0.11337 17.8864 0.130398 17.8997C2.18321 19.4073 4.17171 20.3225 6.12328 20.9291C6.15451 20.9386 6.18761 20.9272 6.20748 20.9015C6.66913 20.2711 7.08064 19.6063 7.43348 18.9073C7.4543 18.8664 7.43442 18.8178 7.39186 18.8016C6.73913 18.554 6.1176 18.2521 5.51973 17.9093C5.47244 17.8816 5.46865 17.814 5.51216 17.7816C5.63797 17.6874 5.76382 17.5893 5.88396 17.4902C5.90569 17.4721 5.93598 17.4683 5.96153 17.4797C9.88928 19.273 14.1415 19.273 18.023 17.4797C18.0485 17.4674 18.0788 17.4712 18.1015 17.4893C18.2216 17.5883 18.3475 17.6874 18.4742 17.7816C18.5177 17.814 18.5149 17.8816 18.4676 17.9093C17.8697 18.2588 17.2482 18.554 16.5945 18.8006C16.552 18.8168 16.533 18.8664 16.5538 18.9073C16.9143 19.6054 17.3258 20.2701 17.7789 20.9005C17.7978 20.9272 17.8319 20.9386 17.8631 20.9291C19.8241 20.3225 21.8126 19.4073 23.8654 17.8997C23.8834 17.8864 23.8948 17.8664 23.8967 17.8445C24.3971 12.6676 23.0585 8.17064 20.3482 4.18414C20.3416 4.17082 20.3303 4.16129 20.317 4.15557ZM8.02002 15.117C6.8375 15.117 5.86313 14.0313 5.86313 12.6981C5.86313 11.3648 6.8186 10.2791 8.02002 10.2791C9.23087 10.2791 10.1958 11.3743 10.1769 12.6981C10.1769 14.0313 9.22141 15.117 8.02002 15.117ZM15.9947 15.117C14.8123 15.117 13.8379 14.0313 13.8379 12.6981C13.8379 11.3648 14.7933 10.2791 15.9947 10.2791C17.2056 10.2791 18.1705 11.3743 18.1516 12.6981C18.1516 14.0313 17.2056 15.117 15.9947 15.117Z"/>
</svg>

<svg width="24" height="24" viewBox="0 0 24 24" xmlns="http://www.w3.org/2000/svg"><path d="M20.317 4.156a19.792 19.792 0 00-4.885-1.516.074.074 0 00-.079.038c-.21.375-.444.864-.608 1.249a18.271 18.271 0 00-5.487 0 12.644 12.644 0 00-.617-1.25.077.077 0 00-.079-.037 19.737 19.737 0 00-4.885 1.516.07.07 0 00-.032.027C.533 8.832-.32 13.366.099 17.843a.082.082 0 00.031.057 19.9 19.9 0 005.993 3.03.078.078 0 00.084-.029 14.09 14.09 0 001.226-1.994.075.075 0 00-.041-.105 13.109 13.109 0 01-1.872-.893.077.077 0 01-.008-.127c.126-.095.252-.193.372-.292a.074.074 0 01.078-.01c3.927 1.793 8.18 1.793 12.061 0a.074.074 0 01.079.01c.12.098.245.197.372.292.044.032.04.1-.006.127-.598.35-1.22.645-1.873.892a.077.077 0 00-.041.106c.36.698.772 1.363 1.225 1.994a.076.076 0 00.084.028 19.834 19.834 0 006.002-3.03.077.077 0 00.032-.055c.5-5.176-.838-9.673-3.549-13.66a.06.06 0 00-.031-.028zM8.02 15.117c-1.182 0-2.157-1.086-2.157-2.419S6.82 10.28 8.02 10.28c1.21 0 2.176 1.095 2.157 2.42 0 1.332-.956 2.418-2.157 2.418zm7.975 0c-1.183 0-2.157-1.086-2.157-2.419s.955-2.419 2.157-2.419c1.21 0 2.176 1.095 2.157 2.42 0 1.332-.946 2.418-2.157 2.418z"/></svg>
